assets/img/braze_icons/file-question-03.svg

<svg fill="none" height="24" viewBox="0 0 24 24" width="24" xmlns="http://www.w3.org/2000/svg"><g fill="#801ed7"><path clip-rule="evenodd" d="m13 2.01558c0-.0263 0-.03946-.0011-.06331-.0236-.49377-.4579-.92779-.9516-.95115-.0239-.001128-.0317-.001125-.0473-.00112h-3.24134c-.80494-.00001-1.46931-.000019-2.01048.0442-.5621.04592-1.0788.14449-1.56414.39178-.75265.38349-1.36457.99541-1.74806 1.74806-.24729.48534-.34586 1.00204-.39178 1.56414-.04422.54118-.04421 1.20554-.0442 2.01049v10.48263c-.00001.805-.00002 1.4693.0442 2.0105.04592.5621.14449 1.0788.39178 1.5642.38349.7526.99541 1.3645 1.74806 1.748.48534.2473 1.00204.3459 1.56414.3918.54119.0442 1.20554.0442 2.0105.0442h6.48262c.805 0 1.4693 0 2.0105-.0442.5621-.0459 1.0788-.1445 1.5642-.3918.7526-.3835 1.3645-.9954 1.748-1.748.2473-.4854.3459-1.0021.3918-1.5642.0442-.5412.0442-1.2055.0442-2.0105v-7.24136c0-.01553 0-.0233-.0011-.04712-.0233-.49383-.4574-.92811-.9512-.95167-.0239-.00114-.037-.00114-.0632-.00114h-4.4164c-.2524.00003-.4982.00006-.7063-.01694-.2286-.01868-.4984-.06275-.7698-.20105-.3763-.19174-.6823-.4977-.874-.87403-.1383-.27142-.1824-.54116-.201-.76975-.0171-.20816-.017-.45395-.017-.70633zm-.818 10.50242c-.2906-.0499-.5894.0047-.8436.1541-.2541.1494-.4472.3839-.5451.662-.1832.521-.7541.7947-1.27514.6115-.52099-.1833-.79476-.7542-.61149-1.2752.25456-.7237.75702-1.3339 1.41843-1.7226.6613-.3886 1.4389-.5307 2.195-.401s1.4418.5227 1.9359 1.1096c.4938.5866.7641 1.329.7632 2.0957-.0002 1.2801-.947 2.1029-1.5694 2.5179-.3417.2278-.6762.3943-.9214.5033-.1241.0551-.2288.0971-.3049.1261l-.1364.0493c-.5239.1746-1.0902-.1085-1.2649-.6325-.1744-.5234.108-1.0891.6309-1.2643l-.0011.0003.0092-.0032c.0098-.0035.027-.0097.0503-.0186.0469-.0179.1178-.0462.2046-.0847.1763-.0784.4039-.1929.6243-.3398.5017-.3345.6788-.6356.6788-.8542v-.0015c.0005-.2948-.1034-.5803-.2933-.8058-.1898-.2255-.4534-.3766-.7439-.4264zm-1.182 6.482c0-.5523.4477-1 1-1h.01c.5523 0 1 .4477 1 1s-.4477 1-1 1h-.01c-.5523 0-1-.4477-1-1z" fill-rule="evenodd"/><path d="m18.908 6.99999c.2936.00001.4404.00001.5606-.07372.1699-.10412.2714-.34943.2249-.54314-.033-.13715-.1287-.2328-.3202-.42409l-3.3323-3.33232c-.1913-.19149-.287-.28723-.4241-.3202-.1937-.04656-.439.05498-.5432.22482-.0737.12027-.0737.26708-.0737.5607v3.10792c0 .28002 0 .42003.0545.52698.0479.09408.1244.17057.2185.21851.107.0545.247.0545.527.0545z"/></g></svg>

<svg width="24" height="24" viewBox="0 0 24 24" fill="none" xmlns="http://www.w3.org/2000/svg">
<path fill-rule="evenodd" clip-rule="evenodd" d="M13 2.01558C13 1.98928 13 1.97612 12.9989 1.95227C12.9753 1.4585 12.541 1.02448 12.0473 1.00112C12.0234 0.999992 12.0156 0.999995 12 1H8.75866C7.95372 0.99999 7.28935 0.999981 6.74818 1.0442C6.18608 1.09012 5.66938 1.18869 5.18404 1.43598C4.43139 1.81947 3.81947 2.43139 3.43598 3.18404C3.18869 3.66938 3.09012 4.18608 3.0442 4.74818C2.99998 5.28936 2.99999 5.95372 3 6.75867V17.2413C2.99999 18.0463 2.99998 18.7106 3.0442 19.2518C3.09012 19.8139 3.18869 20.3306 3.43598 20.816C3.81947 21.5686 4.43139 22.1805 5.18404 22.564C5.66938 22.8113 6.18608 22.9099 6.74818 22.9558C7.28937 23 7.95372 23 8.75868 23H15.2413C16.0463 23 16.7106 23 17.2518 22.9558C17.8139 22.9099 18.3306 22.8113 18.816 22.564C19.5686 22.1805 20.1805 21.5686 20.564 20.816C20.8113 20.3306 20.9099 19.8139 20.9558 19.2518C21 18.7106 21 18.0463 21 17.2413V9.99994C21 9.98441 21 9.97664 20.9989 9.95282C20.9756 9.45899 20.5415 9.02471 20.0477 9.00115C20.0238 9.00001 20.0107 9.00001 19.9845 9.00001L15.5681 9.00001C15.3157 9.00004 15.0699 9.00007 14.8618 8.98307C14.6332 8.96439 14.3634 8.92032 14.092 8.78202C13.7157 8.59028 13.4097 8.28432 13.218 7.90799C13.0797 7.63657 13.0356 7.36683 13.017 7.13824C12.9999 6.93008 13 6.68429 13 6.43191L13 2.01558ZM12.182 12.518C11.8914 12.4681 11.5926 12.5227 11.3384 12.6721C11.0843 12.8215 10.8912 13.056 10.7933 13.3341C10.6101 13.8551 10.0392 14.1288 9.51816 13.9456C8.99717 13.7623 8.7234 13.1914 8.90667 12.6704C9.16123 11.9467 9.66369 11.3365 10.3251 10.9478C10.9864 10.5592 11.764 10.4171 12.5201 10.5468C13.2762 10.6765 13.9619 11.0695 14.456 11.6564C14.9498 12.243 15.2201 12.9854 15.2192 13.7521C15.219 15.0322 14.2722 15.855 13.6498 16.27C13.3081 16.4978 12.9736 16.6643 12.7284 16.7733C12.6043 16.8284 12.4996 16.8704 12.4235 16.8994L12.2871 16.9487C11.7632 17.1233 11.1969 16.8402 11.0222 16.3162C10.8478 15.7928 11.1302 15.2271 11.6531 15.0519L11.652 15.0522L11.6612 15.049C11.671 15.0455 11.6882 15.0393 11.7115 15.0304C11.7584 15.0125 11.8293 14.9842 11.9161 14.9457C12.0924 14.8673 12.32 14.7528 12.5404 14.6059C13.0421 14.2714 13.2192 13.9703 13.2192 13.7517V13.7502C13.2197 13.4554 13.1158 13.1699 12.9259 12.9444C12.7361 12.7189 12.4725 12.5678 12.182 12.518ZM11 19C11 18.4477 11.4477 18 12 18H12.01C12.5623 18 13.01 18.4477 13.01 19C13.01 19.5523 12.5623 20 12.01 20H12C11.4477 20 11 19.5523 11 19Z" fill="#801ED7"/>
<path d="M18.908 6.99999C19.2016 7 19.3484 7 19.4686 6.92627C19.6385 6.82215 19.74 6.57684 19.6935 6.38313C19.6605 6.24598 19.5648 6.15033 19.3733 5.95904L16.041 2.62672C15.8497 2.43523 15.754 2.33949 15.6169 2.30652C15.4232 2.25996 15.1779 2.3615 15.0737 2.53134C15 2.65161 15 2.79842 15 3.09204L15 6.19996C15 6.47998 15 6.61999 15.0545 6.72694C15.1024 6.82102 15.1789 6.89751 15.273 6.94545C15.38 6.99995 15.52 6.99995 15.8 6.99995L18.908 6.99999Z" fill="#801ED7"/>
</svg>
